X: 31944
T: Pearl O'Shaughnessy's
R: barndance
M: 4/4
K: Gmajor
|:(3DGB|d2 d2 d>Be>d|B2 B2 B>AG>B|d2 c2 A>FA>c|e2 d2 B>GB>c|
d2 d2- d>Be>d|B2 B2- B>AG>B|d2 c2 A>FD>F|G2 B2 G2:|
|:(3edc|B2 G2 G>Bd>B|(3cdc A2 A>Bc>B|A2 F2 D2 F2|G>FG>B e>d^c>d|
B2 G2- G>B (3dcB|(3cdc A2 A2- A>B|A>GF>E D>cB>A|G2 B2 G2:|

